neru-light-classic/22x22/actions/timeline-use-zone-on.svg

<svg xmlns="http://www.w3.org/2000/svg" width="22" height="22"><defs><style id="current-color-scheme" type="text/css"></style></defs><path d="M9 3v6H7V4H5v5H3v4h16V5h-2v4h-2V6h-2v3h-2V3zM3 14v5h1v-5zm1 2.5L7 19v-5zM15 14v5l3-2.5zm3 2.5V19h1v-5h-1z" fill="currentColor" color="#1e333d"/></svg>

<svg xmlns="http://www.w3.org/2000/svg" width="22" height="22" version="1.1">
 <defs>
  <style id="current-color-scheme" type="text/css">
   .ColorScheme-Text { color:#1e333d; } .ColorScheme-Highlight { color:#3fb7ff; }
  </style>
 </defs>
 <path style="fill:currentColor" class="ColorScheme-Text" d="M 9,3 V 9 H 7 V 4 H 5 V 9 H 3 V 13 H 19 V 5 H 17 V 9 H 15 V 6 H 13 V 9 H 11 V 3 Z M 3,14 V 19 H 4 V 16.5 14 Z M 4,16.5 7,19 V 14 Z M 15,14 V 19 L 18,16.5 Z M 18,16.5 V 19 H 19 V 14 H 18 Z"/>
</svg>
